X: 1
T: Waltz From Transtrand
M: 3/4
L: 1/8
R: waltz
K: Dmaj
|: A | F3 F Ad | fd AG FA | G/G/F EA B/B/c | d2 AG GF |
F3 F Ad | fd AG FA | G/G/F EA B/B/c | dc d/d/c d :|
|: A | G/G/F EG GB | B/B/A FA df | ag e/g/e eg | gf fd dA | 
GF EG GB | A/B/A FA df  | ag eg g/f/e | d2 dc d :|
|: e | f2 fd eg | fd ed cB | A/B/A AB GA | F2 Fd eb | a/b/a af g/g/a | fA Bc de |
f2 f/f/d g/f/e | dc ed cB | A/B/A AB GA | F2 Ff ef | 
g/g/a gf ec | A/B/A ^GA  fe | d/e/d dc de |[1 d2 dc d :|[2 d4- d |]
